!!!!SEGMENT: pl-wtm--r-2035_smietanski-emil-wladyslaw--2me-scherzo.krn
!!!cenid: 18xx:2017
!!!COM: Śmietański, Emil Władysław
!!!COM-rismID: pe50041781
!!!CDT: 1845-1886
!!!CNT: Polish
!!!OTL: 2me Scherzo
!!!PDT: 1877
!!!AGN: Secular; Scherzo
!!!OMD: Vivace
!!!SMS-siglum: PL-Wtm
!!!SMS-shelfmark: R 2035
!!!SMS-shelfwork: W
!!!SMS-variant:
!!!SMS-altvar:
!!!NIFC-rismSourceID: 1001112678
!!!NIFC-islandoraID: pl-wtm:29606
!!!URL-pdf-islandora: https://repozytorium.nifc.pl/islandora/object/pl-wtm%3A29606/datastream/PDF/view
!!!URL-scan: https://polish.musicsources.pl/pl/lokalizacje/galeria/rekopisy/6527 @EN{Scan on Polish Music Sources Website} @PL{Skany w portalu Dziedzictwo Muzyki Polskiej w otwartym dostępie}
!!!ONB-nifc:
!!!AIN: 1 empty 1 forte
!!!key:
**kern	**fing	**kern	**fing	**dynam
*part2	*	*part1	*	*part1
*staff2	*	*staff1	*	*
*Iempty	*	*Iforte	*	*
*	*	*I"Fortepian	*	*
*clefF4	*	*clefG2	*	*
*k[]	*	*k[]	*	*
*C:	*	*C:	*	*
*M3/4	*	*M3/4	*	*
=1	=1	=1	=1	=1
!	!	!LO:TX:a:i:t=composò par Emil Smietanski._(1877)	!	!
4BB\	.	8g/L 8f/	.	p
.	.	8f#X/	.	.
4B\ 4G\	.	8g/	.	.
.	.	8a/J	.	.
*	*below	*	*	*
4BB\ 4GG\	5	[4g/ [4fn/	.	.
=2	=2	=2	=2	=2
4C\	3	4g/] 4f/]	.	.
8c\L 8G\	4 1	4ee/ 4e/	.	.
8B\J	.	.	.	.
4c\	.	4cc/ 4e/	.	.
=3	=3	=3	=3	=3
4D#X\	.	8b/L 8a/	.	.
.	.	8a#X/	.	.
4d#X\ 4B\	.	8b/	.	.
.	.	8cc/J	.	.
4D#X\ 4BB\	.	[4b/ [4an/	.	.
=4	=4	=4	=4	=4
4E\	3	4b/] 4a/]	.	.
8e\L 8B\	.	4gg/ 4g/	.	.
8d#X\J	.	.	.	.
4e\	.	4ee/ 4g/	.	.
=5	=5	=5	=5	=5
4AA\	.	8cc#X/L 8g/	.	.
.	.	8a/	.	.
4c#X\	.	8b/	.	.
.	.	8cc#/	.	.
4A\	.	8dd/	.	.
.	.	8ee/J	.	.
=6	=6	=6	=6	=6
4D\	.	8ff/L 8f/	.	.
.	.	8ee/	.	.
4f\ 4A\	.	8dd/	.	.
.	.	8cc/	.	.
4d\	.	8b/	.	.
.	.	8a/J	.	.
!!LO:LB:g=original
=7	=7	=7	=7	=7
4GG\	.	8g/L 8B/	.	.
.	.	8f/	.	.
4B\ 4F\	.	8e/	.	.
.	.	8d/	.	.
4G\	.	8e/	.	.
.	.	8f/J	.	.
=8	=8	=8	=8	=8
8c\L 8C\	.	2e/	.	.
8B\	.	.	.	.
8A\	.	.	.	.
8A-X\	.	.	.	.
8G\	.	4g/ 4e/	.	.
8c\J	.	.	.	.
=9	=9	=9	=9	=9
4BB\	.	8gg\L 8dd\ 8g\	4	mf
.	.	8ff#X\	.	.
4f\ 4B\ 4G\	.	8gg\	.	.
.	.	8aa\J	.	.
4BB\ 4GG\	.	[4gg\ [4dd\ [4g\	.	.
=10	=10	=10	=10	=10
4C\	.	4gg\] 4dd\] 4g\]	.	.
8e\L 8c\ 8G\	.	4eee\ 4ee\	.	.
8B\J	.	.	.	.
4c\	.	4ccc\ 4cc\	.	.
=11	=11	=11	=11	=11
4D#X\	.	8bb\L 8ff#X\ 8b\	.	.
.	.	8aa#X\	.	.
4a\ 4d#X\ 4B\	.	8bb\	.	.
.	.	8ccc\J	.	.
4D#\ 4BB\	.	[4bb\ [4ff#\ [4b\	.	.
=12	=12	=12	=12	=12
4E\	.	4bb\] 4ff#\] 4b\]	.	.
8g\L 8e\ 8B\	.	4ggg\ 4gg\	.	.
8d#X\J	.	.	.	.
4e\	.	4eee\ 4ee\	.	.
=13	=13	=13	=13	=13
4AA\	.	8ccc#X\L 8cc#X\	.	.
.	.	8aa\	.	.
4g\ 4c#X\	.	8bb\	.	.
.	.	8ccc#\	.	.
4A\	.	8ddd\	.	.
.	.	8eee\J	.	.
!!LO:LB:g=original
=14	=14	=14	=14	=14
4D\	.	8fff\L 8aa\	.	.
.	.	8eee\	.	.
4f\ 4A\	.	8ddd\	.	.
.	.	8ccc\	.	.
4d\	.	8bb\	.	.
.	.	8aa\J	.	.
=15	=15	=15	=15	=15
4GG\	.	8gg\L 8b\	.	.
.	.	8ff\	.	.
4B\ 4F\	.	8ee\	.	.
.	.	8dd\	.	.
4G\	.	8cc\	.	.
.	.	8b\J	.	.
=16	=16	=16	=16	=16
4c\ 4G\ 4E\ 4C\	.	4cc\	.	.
4r	.	4r	.	.
!LO:N:vis=4.	!	!	!	!
4r	.	4r	.	.
=17	=17	=17	=17	=17
4BB\	.	8g/L 8f/	.	.
!	!	!	!	!LO:DY:t=p
.	.	8f#X/	.	p
4B\ 4G\	.	8g/	.	.
.	.	8a/J	.	.
4BB\ 4GG\	.	[4g/ [4fn/	.	.
=18	=18	=18	=18	=18
*	*above	*	*	*
8c\L 8C\	1	4g/] 4f/]	.	.
8B\	2	.	.	.
8c\	1	4ee/ 4e/	.	.
8d\J	2	.	.	.
4c\	1	4cc/ 4e/	.	.
=19	=19	=19	=19	=19
4D#X\	.	8b/L 8a/	.	.
.	.	8a#X/	.	.
4d#X\ 4B\	.	8b/	.	.
.	.	8cc/J	.	.
4D#\ 4BB\	.	[4b/ [4an/	.	.
=20	=20	=20	=20	=20
8e\L 8E\	.	4b/] 4a/]	.	.
8d#X\	.	.	.	.
8e\	.	4gg/ 4g/	.	.
8f#X\J	.	.	.	.
4e\	.	4ee/ 4g/	.	.
!!LO:LB:g=original
=21	=21	=21	=21	=21
4AA\	.	8cc#X\L 8g\	.	.
.	.	8a\	.	.
!LO:TX:t=P:problem=zapis poprawiany (dopisane olowkiem e)	!	!	!	!
!LO:TX:b:i:t=e.	!	!	!	!
4c#\	.	8b\	.	.
.	.	8cc#\	.	.
4A\	.	8dd\	.	.
.	.	8ee\J	.	.
=22	=22	=22	=22	=22
4D\	.	8ff\L 8f\	.	.
.	.	8ee\	.	.
4f\ 4A\	.	8dd\	.	.
.	.	8cc\	.	.
4d\	.	8b\	1	.
.	.	8a\J	4	.
=23	=23	=23	=23	=23
*	*	*^	*	*
4GG\	.	8g\L	8B\	.	.
.	.	8f\	8ryy	.	.
4B\ 4F\	.	8e\	2ryy	.	.
.	.	8d\	.	.	.
4G\	.	8e\	.	.	.
.	.	8f\J	.	.	.
*	*	*v	*v	*	*
=24	=24	=24	=24	=24
8c\L 8C\	.	2e/	.	.
8B\	.	.	.	.
8A\	.	.	.	.
8A-X\	.	.	.	.
8G\	.	4g/ 4e/	.	.
8c\J	.	.	.	.
=25	=25	=25	=25	=25
!	!	!	!	!LO:DY:t=mf.
4BB\	.	8gg\L 8dd\ 8g\	.	mf
.	.	8ff#X\	.	.
4f\ 4B\ 4G\	.	8gg\	.	.
.	.	8aa\J	.	.
4BB\ 4GG\	.	[4gg\ [4dd\ [4g\	.	.
=26	=26	=26	=26	=26
8G\L 8C\	.	4gg\] 4dd\] 4g\]	.	.
8B\	.	.	.	.
8c\	.	4eee\ 4ee\	.	.
8g\J	.	.	.	.
4e\	.	4ccc\ 4cc\	.	.
=27	=27	=27	=27	=27
4D#X\	.	8bb\L 8ff#X\ 8b\	.	.
.	.	8aa#X\	.	.
4a\ 4d#X\ 4B\	.	8bb\	.	.
.	.	8ccc\J	.	.
4D#\ 4BB\	.	[4bb\ [4ff#\ [4b\	.	.
!!LO:LB:g=original
=28	=28	=28	=28	=28
8B\L 8E\	.	4bb\] 4ff#X\] 4b\]	.	.
8d#X\J	.	.	.	.
*clefG2	*	*	*	*
8e/L	.	4ggg\ 4gg\	.	.
8b/J	.	.	.	.
4g/	.	4eee\ 4ee\	.	.
*clefF4	*	*	*	*
=29	=29	=29	=29	=29
4AA/	.	8ccc#X\L 8cc#X\	.	.
.	.	8aa\	.	.
4g\ 4c#X\	.	8bb\	.	.
.	.	8ccc#\	.	.
4A\	.	8ddd\	.	.
.	.	8eee\J	.	.
=30	=30	=30	=30	=30
4D\ 4DD\	.	8fff\L 8ff\	.	.
.	.	8eee\	.	.
4f\ 4A\	.	8ddd\	.	.
.	.	8ccc\	.	.
4d\	.	8bb\	1	.
.	.	8aa\J	2	.
=31	=31	=31	=31	=31
4GG\	.	8gg\L 8b\	5	.
.	.	8ff\	.	.
4B\ 4F\	.	8ee\	.	.
.	.	8dd\	.	.
4G\	.	8cc\	.	.
.	.	8b\J	.	.
=32	=32	=32	=32	=32
4c\ 4G\ 4E\ 4C\	.	4cc\	.	.
4r	.	4r	.	.
4r	.	4r	.	.
=33||	=33||	=33||	=33||	=33||
4GG\	.	8dd\L 8b\	.	p
.	.	8cc#X\	.	.
8d\L 8B\	.	8dd\	.	.
8A#X\J	.	8ee\J	.	.
4d\ 4B\	.	[4dd\ [4b\	.	.
=34	=34	=34	=34	=34
8GG\L	.	4dd\] 4b\]	.	.
8D\	.	.	.	.
8F#X\	.	4bb\ 4b\	.	.
8G\	.	.	.	.
8B\	.	4gg\ 4b\	.	.
8c\J	.	.	.	.
!!LO:LB:g=original
=35	=35	=35	=35	=35
4d\ 4D\	.	4gg\ 4a\	.	.
*clefG2	*	*	*	*
4a\ 4f#X\ 4d\	.	8ff#X\L	.	.
.	.	8ee\J	.	.
4a\ 4f#\ 4d\	.	4dd\	.	.
=36	=36	=36	=36	=36
*	*	*2\right	*	*
4a\ 4f\ 4d\	.	2ddTT\	.	.
4a\ 4f\ 4c#X\	.	.	.	.
4a\ 4f\ 4d\	.	4cc\	.	.
*clefF4	*	*	*	*
=37	=37	=37	=37	=37
4EE/	.	8b\L 8g\	.	.
.	.	8a#X\	.	.
8B\L 8G\	.	8b\	.	.
8F#X\J	.	8cc\J	.	.
4B\ 4G\	.	[4b\ [4g\	.	.
=38	=38	=38	=38	=38
8EE\L	.	4b\] 4g\]	.	.
8BB\	.	.	.	.
8D#X\	.	4gg\ 4g\	.	.
8E\	.	.	.	.
8G\	.	4ee\ 4g\	.	.
8A\J	.	.	.	.
=39	=39	=39	=39	=39
4B\ 4BB\	.	4ee\ 4f#X\	.	.
*clefG2	*	*	*	*
4f/ 4d#X/ 4B/	.	8dd#X\L	.	.
.	.	8cc#X\J	.	.
4f/ 4d#/ 4B/	.	4b\	.	.
=40	=40	=40	=40	=40
4f/ 4d#X/ 4B/	.	2btt\	.	.
4f/ 4d#/ 4A#X/	.	.	.	.
4f/ 4d#/ 4B/	.	8cc#X\L	.	.
.	.	8dd#X\J	.	.
*clefF4	*below	*	*	*
=41	=41	=41	=41	=41
4G\ 4GG\	.	8ee\L	.	.
.	.	8dd#X\	.	.
8G\L 8E\	4 2	8ee\	.	.
8B\J	1	8e\J	.	.
4e\	2	8r	.	.
.	.	8g\	.	.
!!LO:LB:g=original
=42	=42	=42	=42	=42
4AA#X/ 4AAA#X/	.	8cc\L	.	.
.	.	8b\	.	.
8G\L 8E\	.	8cc\	.	.
8c\J	.	8e\J	.	.
4e\	.	8r	.	.
.	.	8g\	.	.
=43	=43	=43	=43	=43
4BB\ 4BBB\	.	8g\L	.	.
.	.	8f#X\	.	.
8G\L 8E\	.	8g\	.	.
8B\J	.	8a\	2	.
4e\	.	8b\	1	.
.	.	8cc#X\J	.	.
=44	=44	=44	=44	=44
*	*	*^	*	*
4B\ 4BB\	.	8dd#X\L	8f#X\	.	.
.	.	8ee\	8ryy	.	.
8A\L 8F#X\	.	8ff#X\	2ryy	.	.
8B\J	.	8dd#\	.	.	.
4d#X\	.	8b\	.	.	.
.	.	8f#X\J	.	.	.
*	*	*v	*v	*	*
=45	=45	=45	=45	=45
4E\ 4EE\	.	8gg\L	.	.
!	!	!LO:TX:b:i:t=cresc.:ext=ut:problem=dynamics with extension lines	!	!LO:HP:t=cresc.
.	.	8ff#X\	.	<
8B\L 8G\	.	8gg\	.	.
8e\J	.	8g\J	.	.
4g\	.	8r	.	.
.	.	8b\	.	.
=46	=46	=46	=46	=46
4C#X\ 4CC#X\	.	8ee\L	.	.
.	.	8dd#X\	.	.
8B\L 8G\	.	8ee\	.	.
8e\J	.	8g\J	.	[[
4g\	.	8r	.	.
.	.	8b\	.	.
=47	=47	=47	=47	=47
4D/ 4DD/	.	8b\L	.	.
.	.	8a\	.	.
8B\L 8G\	.	8b\	.	.
8d\J	.	8cc\	.	.
4g\	.	8dd\	.	.
.	.	8ee\J	.	.
=48	=48	=48	=48	=48
*	*	*^	*	*
4D\	.	8ff#X/L	8a\	.	.
.	.	8gg\	8ryy	.	.
8c\L 8A\	.	8aa\	2ryy	.	.
8d\J	.	8ff#\	.	.	.
4f#X\	.	8dd\	.	.	.
.	.	8a\J	.	.	.
*	*	*v	*v	*	*
!!LO:PB:g=original
=49	=49	=49	=49	=49
8B\L 8G\	.	4gg\ 4dd\ 4g\	.	f
8A\	.	.	.	.
8B\	.	4ggg\ 4ddd\ 4gg\	.	.
8c\	.	.	.	.
8d\	.	4r	.	.
8e\J	.	.	.	.
*clefG2	*	*	*	*
=50	=50	=50	=50	=50
8f#X/L	.	4dd\ 4a\	.	.
8g/	.	.	.	.
8a/	.	4ddd\ 4aa\ 4ff#X\ 4dd\	.	.
8f#/	.	.	.	.
8d/	.	4r	.	.
8A/J	.	.	.	.
*clefF4	*	*	*	*
=51	=51	=51	=51	=51
8G\L 8E\	.	4ee\ 4b\ 4e\	.	.
8F#X\	.	.	.	.
8G\	.	4eee\ 4bb\ 4ee\	.	.
8A\	.	.	.	.
8B\	.	4r	.	.
8c#X\J	.	.	.	.
=52	=52	=52	=52	=52
8d#X\L	.	4b/ 4f#X/	.	.
8e\	.	.	.	.
8f#X\	.	4bb/ 4ff#X/ 4dd#X/ 4b/	.	.
8d#\	.	.	.	.
8B\	.	4ryy	.	.
8F#X\J	.	.	.	.
=53	=53	=53	=53	=53
4E\	.	8gg\L	.	.
.	.	8aa#X\	.	.
4g\ 4e\	.	8bb\	.	.
.	.	8gg\	.	.
4B\	.	8ee\	.	.
.	.	8b\J	.	.
=54	=54	=54	=54	=54
4C\	.	8ee-X\L	.	.
.	.	8ff#X\	.	.
4e-X\ 4c\	.	8gg\	.	.
.	.	8ee-\	.	.
4G\	.	8cc\	.	.
.	.	8g\J	.	.
=55	=55	=55	=55	=55
4D\	.	8b\L	.	.
.	.	8cc\	.	.
4B\ 4G\	.	8dd\	.	.
.	.	8b\	.	.
4D\	.	8g\	.	.
.	.	8d\J	.	.
!!LO:LB:g=original
=56	=56	=56	=56	=56
4DD/	.	8f#X/L	.	.
.	.	8g/	.	.
4F#X/ 4D/	.	8a/	.	.
.	.	8f#/	.	.
4C/	.	8d/	.	.
.	.	8A/J	.	.
=57	=57	=57	=57	=57
8BB/L 8GG/	.	4g/ 4d/ 4G/	.	.
8AA/	.	.	.	.
8BB/	.	4gg/ 4dd/ 4g/	.	.
8C/	.	.	.	.
8D/	.	4r	.	.
8E/J	.	.	.	.
*	*	*clefF4	*	*
=58	=58	=58	=58	=58
8F#X/L	.	4d\ 4A\	.	.
8G/	.	.	.	.
*	*	*clefG2	*	*
8A/	.	4dd/ 4a/ 4f#X/ 4d/	.	.
8F#/	.	.	.	.
8D/	.	4r	.	.
8AA/J	.	.	.	.
*	*	*clefF4	*	*
=59	=59	=59	=59	=59
8GG/L 8EE-X/	5	4e-X\ 4B-X\ 4E-X\	.	.
8FF/	.	.	.	.
*	*	*clefG2	*	*
8GG/	.	4ee-X\ 4b-X\ 4e-X\	.	.
8AA-X/	.	.	.	.
8BB-X/	1	4r	.	.
8C/J	4	.	.	.
*	*	*clefF4	*	*
=60	=60	=60	=60	=60
8D/L	.	4B-X\ 4F\	.	.
8E-X/	.	.	.	.
*	*	*clefG2	*	*
8F/	.	4b-X/ 4f/ 4d/ 4B-X/	.	.
8D/	.	.	.	.
8BB-X/	.	4r	.	.
8FF/J	.	.	.	.
=61	=61	=61	=61	=61
4EE-X/	.	8g/L	.	.
.	.	8a-X/	.	.
4G\ 4E-X\	.	8b-X/	.	.
.	.	8g/	.	.
4BB-X\	.	8e-X/	.	.
.	.	8B-X/J	.	.
=62	=62	=62	=62	=62
4AAA-X\	.	8c</L	.	.
.	.	8d</	.	.
4C\ 4AA-X\	.	8e-X</	.	.
.	.	8c</	.	.
4EE-X\	.	8A-X</	.	.
.	.	8E-X</J	.	.
!!LO:LB:g=original
=63	=63	=63	=63	=63
4DD\	.	8G</L	.	.
.	.	8A</	.	.
4D\ 4BB\ 4GG\	.	8Bn</	.	.
.	.	8G</	.	.
4rEE	.	8D</	.	.
.	.	8BB</J	.	.
=64	=64	=64	=64	=64
4FF#X\ 4DD\	.	8D</L	.	.
.	.	8E</	.	.
4AA\	.	8F#X</	.	.
.	.	8D</	.	.
4rEE	.	8C</	.	.
.	.	8AA</J	.	.
=65	=65	=65	=65	=65
8BBB\L 8GGG\	.	4G</ 4D</ 4GG</	.	p
8AAA\	.	.	.	.
8BBB\	.	4r<	.	.
8CC\	.	.	.	.
8DD\	.	4r<	.	.
8EE\J	.	.	.	.
=66	=66	=66	=66	=66
2.ryy	.	8FF</L	.	.
.	.	8EE</	.	.
.	.	8FF</	.	.
.	.	8FF#X</	.	.
.	.	8GG</	.	.
.	.	8AA</J	.	.
=67	=67	=67	=67	=67
8BB\L 8GG\	.	2.ryy	.	.
8AA\	.	.	.	.
8BB\	.	.	.	.
8C\	.	.	.	.
8D\	.	.	.	.
8E\J	.	.	.	.
=68	=68	=68	=68	=68
2.ryy	.	8F</L	.	.
.	.	8E</	.	.
.	.	8F</	.	.
.	.	8F#X</	.	.
.	.	8G</	.	.
.	.	8A</J	.	.
=69	=69	=69	=69	=69
8B\L 8G\	.	2.ryy	.	.
8A\	.	.	.	.
8B\	.	.	.	.
8c\	.	.	.	.
8d\	.	.	.	.
8e\J	.	.	.	.
=70	=70	=70	=70	=70
2.r	.	8f/L	.	.
.	.	8e/	.	.
.	.	8f/	.	.
.	.	8f#X/	.	.
.	.	8g/	.	.
.	.	8a-X/J	.	.
=71	=71	=71	=71	=71
4BB\	.	8g/L 8f/	.	p
.	.	8f#X/	.	.
4B\ 4G\	.	8g/	.	.
.	.	8a/J	.	.
4BB\ 4GG\	.	[4g/ [4fn/	.	.
=72	=72	=72	=72	=72
4C\	3	4g/] 4f/]	.	.
8c\L 8G\	.	4ee/ 4e/	.	.
8B\J	.	.	.	.
4c\	.	4cc/ 4e/	.	.
=73	=73	=73	=73	=73
4D#X\	.	8b/L 8a/	.	.
.	.	8a#X/	.	.
4d#X\ 4B\	.	8b/	.	.
.	.	8cc/J	.	.
4D#\ 4BB\	.	[4b/ [4an/	.	.
=74	=74	=74	=74	=74
4E\	3	4b/] 4a/]	.	.
8e\L 8B\	.	4gg/ 4g/	.	.
8d#X\J	.	.	.	.
4e\	.	4ee/ 4g/	.	.
!!LO:LB:g=original
=75	=75	=75	=75	=75
*^	*	*	*	*
4AA\	4ryy	.	8cc#X\L 8g\	.	.
.	.	.	8a\	.	.
!LO:TX:t=P:problem=zapis poprawiany	!	!	!	!	!
!LO:TX:b:i:t=e	!	!	!	!	!
4c#\	4e/	.	8b\	.	.
.	.	.	8cc#\	.	.
4A\	4ryy	.	8dd\	.	.
.	.	.	8ee\J	.	.
*v	*v	*	*	*	*
=76	=76	=76	=76	=76
4D\	.	8ff\L 8f\	.	.
.	.	8ee\	.	.
4f\ 4A\	.	8dd\	.	.
.	.	8cc\	.	.
4d\	.	8b\	.	.
.	.	8a\J	.	.
=77	=77	=77	=77	=77
4GG\	.	8g\L 8B\	.	.
.	.	8f\	.	.
4B\ 4F\	.	8e\	.	.
.	.	8d\	.	.
4G\	.	8e\	.	.
.	.	8f\J	.	.
=78	=78	=78	=78	=78
8c\L 8C\	.	2e\	.	.
8B\	.	.	.	.
8A\	.	.	.	.
8A-X\	.	.	.	.
8G\	.	4g\ 4e\	.	.
8c\J	.	.	.	.
=79	=79	=79	=79	=79
!	!	!	!	!LO:DY:t=mf.
4BB\	.	8gg\L 8dd\ 8g\	.	mf
.	.	8ff#X\	.	.
4f\ 4B\ 4G\	.	8gg\	.	.
.	.	8aa\J	.	.
4BB\ 4GG\	.	[4gg\ [4dd\ [4g\	.	.
=80	=80	=80	=80	=80
4C\	.	4gg\] 4dd\] 4g\]	.	.
8e\L 8c\ 8G\	.	4eee\ 4ee\	.	.
8B\J	.	.	.	.
4e\ 4c\	.	4ccc\ 4cc\	.	.
!!LO:LB:g=original
=81	=81	=81	=81	=81
4C#X\	.	8aa\L 8ee\ 8a\	.	.
.	.	8gg#X\	.	.
4g\ 4c#X\ 4A\	.	8aa\	.	.
.	.	8bb-X\J	.	.
4C#\ 4AA\	.	[4aa\ [4ee\ [4a\	.	.
=82	=82	=82	=82	=82
4D\	.	4aa\] 4ee\] 4a\]	.	.
8f\L 8d\ 8A\	.	4fff\ 4ff\	.	.
8c#X\J	.	.	.	.
4f\ 4d\	.	4ddd\ 4dd\	.	.
=83	=83	=83	=83	=83
4FF/	.	4.aaa\ 4.aa\	.	.
4r	.	.	.	.
.	.	8aaa\ 8aa\	.	.
4r	.	[4aaa\ [4aa\	.	.
*clefG2	*	*	*	*
=84	=84	=84	=84	=84
4dd/: 4f/: 4d/: 4A:/	.	4aaa\] 4aa\]	.	.
4r	.	8ggg\L	.	.
.	.	8fff\	.	.
4r	.	8eee\	.	.
.	.	8ddd\J	.	.
*clefF4	*	*	*	*
=85	=85	=85	=85	=85
4F\	.	8ccc#X\L	.	.
.	.	8ddd\	.	.
4a\ 4d\ 4A\	.	8eee\	.	.
.	.	8fff\	.	.
4F\	.	8aa\	.	.
.	.	8ddd\J	.	.
=86	=86	=86	=86	=86
!	!	!LO:TX:b:i:t=poco rit.	!	!
4GG\	.	2.bbtt\	.	.
4e\ 4c#X\ [4G\	.	.	.	.
4f\ 4d\ 4G\]	.	.	.	.
=87	=87	=87	=87	=87
!LO:SIC:v:n=2:s=4CC/	!	!	!	!
4C/ 4DD/	.	8eee\L 8aa\	.	f
.	.	8eee\ 8aa\	.	.
*clefG2	*	*	*	*
!	!	!LO:TX:b:i:t=a tempo.	!	!
4e/ 4c/	.	8bb\	.	.
.	.	8ccc\J	.	.
4f/ 4c/	.	[4aa-X\ [4cc\	.	.
=88	=88	=88	=88	=88
*	*	*^	*	*
2.g/ 2.d/ 2.c/	.	4aa-\]	4cc\]	.	.
.	.	4gg/	2b\	.	.
.	.	4ff/	.	.	.
*	*	*v	*v	*	*
=89	=89	=89	=89	=89
4g/ 4e/ 4c/	.	8ee\L 8cc\	.	.
.	.	8ee\ 8cc\	.	.
*clefF4	*	*	*	*
4C\	.	8dd#X\ 8b\	.	.
.	.	8ee\J 8cc\	.	.
4F\	.	4ff\ 4cc\ 4a-X\	.	.
=90	=90	=90	=90	=90
4G\	.	4ee\ 4cc\ 4g\	.	.
4GG\	.	4r	.	.
4G\	.	4dd\ 4b\ 4f\	.	.
=91	=91	=91	=91	=91
4C/ 4CC/	.	8cc\L 8e\	.	.
.	.	8cc\ 8e\	.	.
4E/ 4C/	.	8b\	.	.
.	.	8cc\J	.	.
4F/ 4C/	.	[4a-X\ [4c\	.	.
=92	=92	=92	=92	=92
*	*	*^	*	*
*2\right	*	*	*	*	*
2.G\ 2.D\ 2.C\	.	4a-\]	4c\]	.	.
.	.	4g/	2B\	.	.
.	.	4f/	.	.	.
*	*	*v	*v	*	*
!!LO:PB:g=original
=93	=93	=93	=93	=93
4G\ 4E\ 4C\	.	8e/L 8c/	.	.
.	.	8e/ 8c/	.	.
4CC/	.	8d#X/ 8B/	.	.
.	.	8e/J 8c/	.	.
4FF/	.	4f/ 4c/ 4A-X/	.	.
=94	=94	=94	=94	=94
4GG/	.	4e/ 4c/ 4G/	.	.
4GGG/	.	4r	.	.
4GG\	.	4d</ 4B</ 4F</	.	.
=95	=95	=95	=95	=95
2CC\	.	8c</L 8G</ 8E</	.	f
.	.	8G</ 8E</	.	.
.	.	8F#X</ 8D#X</	.	.
.	.	8G</J 8E</	.	.
4FF\	.	4A-X</ 4Fn</ 4C</	.	.
=96	=96	=96	=96	=96
4GG\	.	4G</ 4E</ 4C</	.	.
4GGG\	.	4r<	.	.
4GG\	.	4B</ 4G</ 4F</ 4D</	.	.
=97	=97	=97	=97	=97
2CC\	.	8c</L 8G</ 8E</	.	.
.	.	8G</ 8E</	.	.
.	.	8F#X</ 8D#X</	.	.
.	.	8G</J 8E</	.	.
4FF\	.	4A-X</ 4Fn</ 4C</	.	.
=98	=98	=98	=98	=98
4GG\	.	4G</ 4E</ 4C</	.	.
4GGG\	.	4r<	.	.
4GG\	.	4B</ 4G</ 4F</ 4D</	.	.
!!LO:LB:g=original
=99	=99	=99	=99	=99
!	!	!LO:TX:t=P:problem=mixed beam	!	!
4CC\ 4CCC\	.	8c</L 8E</ 8C</	.	.
.	.	8G</	.	.
4C\	.	8E</	2	.
.	.	8G</	1	.
4G\ 4E\ 4C\	.	8c</	.	.
.	.	8e\J	.	.
=100	=100	=100	=100	=100
4G\ 4E\ 4C\	.	4g\	.	.
4G\ 4E\ 4C\	.	4r	.	.
4G\ 4E\ 4C\	.	4r	.	.
=101	=101	=101	=101	=101
4G\ 4E\ 4C\	.	8a\L	.	.
.	.	8g\	.	.
4G\ 4E\ 4C\	.	8c\	.	.
.	.	8e\	.	.
4G\ 4E\ 4C\	.	8g\	.	.
.	.	8cc\J	.	.
=102	=102	=102	=102	=102
4c\ 4G\ 4E\	.	4g\	.	.
4c\ 4G\ 4E\	.	4r	.	.
4c\ 4G\ 4E\	.	4r	.	.
=103	=103	=103	=103	=103
2EE/	.	8e/L 8B/ 8G/	.	p
.	.	8B/ 8G/	.	.
.	.	8A#X/ 8F/	.	.
.	.	8B/J 8G/	.	.
4AA/	.	4c/ 4An/ 4E/	.	.
=104	=104	=104	=104	=104
4BB/	.	4B/ 4G/ 4E/	.	.
4BBB/	.	4r	.	.
4BB/	.	4d#X/ 4B/ 4A/ 4F#X/	.	.
=105	=105	=105	=105	=105
2EE/	.	8e/L 8B/ 8G/	.	.
.	.	8B/ 8G/	.	.
.	.	8A#X/ 8F/	.	.
.	.	8B/J 8G/	.	.
4AA/	.	4c/ 4An/ 4E/	.	.
!!LO:LB:g=original
=106	=106	=106	=106	=106
4BB\	.	4B/ 4G/ 4E/	.	.
4BBB\	.	4r	.	.
4BB\	.	4d#X/ 4B/ 4A/ 4F#X/	.	.
=107	=107	=107	=107	=107
4EE\ 4EEE\	.	8e/L 8G#X/ 8E/	.	.
.	.	8B/	.	.
4E\	.	8G#/	.	.
.	.	8B/	.	.
4B\ 4G#X\ 4E\	.	8e/	.	.
!	!	!LO:TX:b:i:t=poco ritenuto:dur=7qe:ext=ut:problem=text with extension lines	!	!
.	.	8g#X/J	.	.
=108	=108	=108	=108	=108
4B\ 4G#X\ 4E\	.	4b/	.	.
4B\ 4G#\ 4E\	.	4r	.	.
4B\ 4G#\ 4E\	.	4r	.	.
=109	=109	=109	=109	=109
4B\ 4G#X\ 4E\	.	8cc\L	.	.
.	.	8b\	.	.
4B\ 4G#\ 4E\	.	8e\	.	.
.	.	8g#X\	.	.
4B\ 4G#\ 4E\	.	8b\	.	.
.	.	8ee\J	.	.
=110	=110	=110	=110	=110
4e\ 4B\ 4G#X\ 4E\	.	4b\	.	.
4e\ 4B\ 4G#\ 4E\	.	4r	.	.
4e\ 4B\ 4G#\ 4E\	.	4r	.	.
=111||	=111||	=111||	=111||	=111||
8AA\L	.	[2.cc\ [2.e\	.	p
8E\	.	.	.	.
8c\	.	.	.	.
8E\	.	.	.	.
!	!	!LO:TX:b:i:t=ma espressivo.	!	!
8c\	.	.	.	.
8E\J	.	.	.	.
=112	=112	=112	=112	=112
*	*	*^	*	*
8c\L	.	4cc/]	2.e\]	.	.
8E\	.	.	.	.	.
8c\	.	4g#X/	.	.	.
8E\	.	.	.	.	.
8c\	.	4a/	.	.	.
8E\J	.	.	.	.	.
*	*	*v	*v	*	*
!!LO:LB:g=original
=113	=113	=113	=113	=113
8C\L	.	2.ee\ 2.a\ 2.e\	.	.
8E\	.	.	.	.
8c\	.	.	.	.
8E\	.	.	.	.
8c\	.	.	.	.
8E\J	.	.	.	.
=114	=114	=114	=114	=114
8AA\L	.	4ff\ 4a\ 4f\	.	.
8E\	.	.	.	.
8c\	.	4ee\ 4e\	.	.
8E\	.	.	.	.
8A\	.	4cc\ 4e\	.	.
8E\J	.	.	.	.
=115	=115	=115	=115	=115
8GG#X\L	.	2b\ 2e\	.	.
8E\	.	.	.	.
8B\	.	.	.	.
8E\	.	.	.	.
8B\	.	[4b\ 4e\	.	.
8E\J	.	.	.	.
=116	=116	=116	=116	=116
*	*	*^	*	*
8FF\L	.	8b/L]	2.d#X\	.	.
8BB\	.	8a#X/	.	.	.
8A\	.	8b/	.	.	.
8BB\	.	8cc/	.	.	.
!	!	!LO:TX:t=P:problem=zapis poprawiany - skreslenia	!	!	!
!	!	!LO:TX:a:i:t=ais	!	!	!
8A\	.	8a#/	.	.	.
!	!	!LO:TX:a:i:t=h	!	!	!
8BB\J	.	8b/J	.	.	.
*	*	*v	*v	*	*
=117	=117	=117	=117	=117
8EE/L	.	2.b\ 2.e\	.	.
8BB/	.	.	.	.
8G#X/	.	.	.	.
8BB/	.	.	.	.
8G#/	.	.	.	.
8BB/J	.	.	.	.
=118	=118	=118	=118	=118
8G#X\L	.	4ee\ 4b\ 4e\	.	.
8BB\	.	.	.	.
8G#\	.	4r	.	.
8BB\	.	.	.	.
8G#\	.	4r	.	.
8BB\J	.	.	.	.
=119	=119	=119	=119	=119
8AA\L	.	[2.cc\ [2.e\	.	.
8E\	.	.	.	.
8c\	.	.	.	.
8E\	.	.	.	.
8c\	.	.	.	.
8E\J	.	.	.	.
!!LO:LB:g=original
=120	=120	=120	=120	=120
*	*	*^	*	*
8c\L	.	4cc/]	2.e\]	.	.
8E\	.	.	.	.	.
8c\	.	4g#X/	.	.	.
8E\	.	.	.	.	.
8c\	.	4a/	.	.	.
8E\J	.	.	.	.	.
*	*	*v	*v	*	*
=121	=121	=121	=121	=121
8C\L	.	2.ee\ 2.a\ 2.e\	.	.
8E\	.	.	.	.
8c\	.	.	.	.
8E\	.	.	.	.
8c\	.	.	.	.
8E\J	.	.	.	.
=122	=122	=122	=122	=122
8AA\L	.	4ff#X\ 4a\ 4f#X\	.	.
8E\	.	.	.	.
8c\	.	4ee\ 4e\	.	.
8E\	.	.	.	.
8A\	.	4cc\ 4e\	.	.
8E\J	.	.	.	.
=123	=123	=123	=123	=123
*	*	*^	*	*
8BB\L	.	2b/	2.e\	.	.
8G#X\	.	.	.	.	.
8B\	.	.	.	.	.
8G#\	.	.	.	.	.
8B\	.	8a#X/L	.	.	.
8G#\J	.	8b/J	.	.	.
*	*	*v	*v	*	*
=124	=124	=124	=124	=124
8BB\L	.	2cc#X\ 2a\	.	.
8F\	.	.	.	.
8B\	.	.	.	.
8F\	.	.	.	.
8B\	.	4ee\ 4a\	.	.
8F\J	.	.	.	.
=125	=125	=125	=125	=125
!	!	!LO:N:vis=2	!	!
8BB\L	.	2.dd#X\ 2.aTT\	.	.
8F\	.	.	.	.
8B\	.	.	.	.
8F\	.	.	.	.
8B\	.	.	.	.
8F\J	.	.	.	.
=126	=126	=126	=126	=126
8E\L	.	4ee\ 4g#X\	.	.
8B\	.	.	.	.
8e\	.	4r	.	.
8B\	.	.	.	.
8e\	.	4r	.	.
8B\J	.	.	.	.
!!LO:LB:g=original
=127	=127	=127	=127	=127
4AA\ 4AAA\	.	8r	.	.
.	.	8e/L	.	.
4c\ 4A\ 4E\	.	8f#X/	.	.
.	.	8e/	.	.
4c\ 4A\ 4E\	.	8g#X/	.	.
.	.	8e/J	.	.
=128	=128	=128	=128	=128
2.c\ 2.A\ 2.E\	.	8a/L	.	.
.	.	8e/	.	.
.	.	8b/	.	.
.	.	8e/	.	.
.	.	8cc/	.	.
.	.	8e/J	.	.
=129	=129	=129	=129	=129
4C\ 4CC\	.	8r	.	.
.	.	8a\L	.	.
4e\ 4A\ 4E\	.	8b\	.	.
.	.	8a\	.	.
4e\ 4A\ 4E\	.	8cc\	.	.
.	.	8a\J	.	.
=130	=130	=130	=130	=130
2.e\ 2.A\ 2.E\	.	8dd\L	.	.
.	.	8a\	.	.
.	.	8dd#X\	.	.
.	.	8a\	.	.
.	.	8ee\	.	.
.	.	8a\J	.	.
=131	=131	=131	=131	=131
4BB\ 4BBB\	.	8r	.	.
.	.	8g#X\L	.	.
4e\ 4G#X\	.	8ee\	.	.
.	.	8g#\	.	.
4e\ 4G#\	.	8b\	.	.
.	.	8g#\J	.	.
=132	=132	=132	=132	=132
4BB\	.	8r	.	.
.	.	8e/L	.	.
4B\ 4A\	.	8g#X/	.	.
.	.	8e/	.	.
4B\ 4A\	.	8f#X/	.	.
.	.	8d#X/J	.	.
=133	=133	=133	=133	=133
4E\ 4EE\	.	8r	.	.
.	.	8G#X/L	.	.
4G#X\ 4E\	.	8e/	.	.
.	.	8d#X/	.	.
4G#\ 4E\	.	8fn/	.	.
.	.	8e/J	.	.
!!LO:LB:g=original
=134	=134	=134	=134	=134
2.B\ 2.G#X\ 2.E\	.	8a/L	.	.
.	.	8g#X/	.	.
.	.	8b/	.	.
.	.	8a#X/	.	.
.	.	8cc/	.	.
.	.	8b/J	.	.
=135	=135	=135	=135	=135
4AA\ 4AAA\	.	8r	.	.
.	.	8e/L	.	.
4c\ 4A\ 4E\	.	8f#X/	.	.
.	.	8e/	.	.
4c\ 4A\ 4E\	.	8g#X/	.	.
.	.	8e/J	.	.
=136	=136	=136	=136	=136
2.c\ 2.A\ 2.E\	.	8a/L	.	.
.	.	8e/	.	.
.	.	8b/	.	.
.	.	8e/	.	.
.	.	8cc/	.	.
.	.	8e/J	.	.
=137	=137	=137	=137	=137
4C\ 4CC\	.	8r	.	.
.	.	8a\L	.	.
4e\ 4A\ 4E\	.	8b\	.	.
.	.	8a\	.	.
4e\ 4A\ 4E\	.	8cc\	.	.
.	.	8a\J	.	.
=138	=138	=138	=138	=138
2.e\ 2.A\ 2.E\	.	8dd#X\L	.	.
.	.	8a\	.	.
.	.	8ee\	.	.
.	.	8a\	.	.
.	.	8ff#X\	.	.
.	.	8a\J	.	.
=139	=139	=139	=139	=139
4BB\ 4BBB\	.	8r	.	.
.	.	8g#X\L	.	.
4e\ 4G#X\	.	8gg#X\	.	.
.	.	8g#\	.	.
4e\ 4G#\	.	8ee\	.	.
.	.	8g#\J	.	.
=140	=140	=140	=140	=140
4BB\	.	8r	.	.
.	.	8a\L	.	.
4e\ 4c\ 4A\	.	8aa\	.	.
.	.	8a\	.	.
4e\ 4c\ 4A\	.	8ee\	.	.
.	.	8a\J	.	.
!!LO:PB:g=original
=141	=141	=141	=141	=141
4BB\ 4BBB\	.	8r	.	.
.	.	8b/L	.	.
4d#X\ 4B\ 4A\	.	8a#X/	.	.
.	.	8b/	.	.
4d#\ 4B\ 4A\	.	8gg#X/	.	.
.	.	8ff#X/J	.	.
=142	=142	=142	=142	=142
2.e\ 2.B\ 2.G#X\ 2.E\	.	8ee/L	.	.
.	.	8b/	.	.
.	.	8ee/	.	.
.	.	8gg#X/	.	.
.	.	8bb/	.	.
.	.	8eee/J	.	.
=143	=143	=143	=143	=143
!LO:TX:t=P:problem=mixed beam	!	!	!	!
8EE/L	.	[2.ff\ [2.g#X\	.	.
!	!	!LO:TX:b:i:t=espressivo	!	!
8B\	.	.	.	.
8d\	.	.	.	.
8B\	.	.	.	.
8d\	.	.	.	.
8B\J	.	.	.	.
=144	=144	=144	=144	=144
8E\L	.	4ff\] 4g#\]	.	.
8A\	.	.	.	.
8c\	.	4ee\ 4a\	.	.
8A\	.	.	.	.
8c\	.	4aa\ 4a\	.	.
8A\J	.	.	.	.
=145	=145	=145	=145	=145
8E\L	.	4gg#X\ 4dd#X\ 4g#X\	.	.
8F#X\	.	.	.	.
8d#X\	.	4aa\ 4dd#\ 4a\	.	.
8F#\	.	.	.	.
8d#\	.	4bb\ 4dd#\ 4b\	.	.
8F#\J	.	.	.	.
=146	=146	=146	=146	=146
8E\L	.	2gg#X\ 2ee\ 2g#X\	.	.
8G#X\	.	.	.	.
8e\	.	.	.	.
8G#\	.	.	.	.
8e\	.	[4ee\	.	.
8G#\J	.	.	.	.
=147	=147	=147	=147	=147
8E\L	.	4ee\]	.	.
8B\	.	.	.	.
.	.	8qggn/	.	.
8d\	.	4ff\ 4g#X\	.	.
8B\	.	.	.	.
8d\	.	4ee\ 4g#\	.	.
8B\J	.	.	.	.
!!LO:LB:g=original
=148	=148	=148	=148	=148
8AA\L	.	4dd#X\ 4gn\	.	.
8A\	.	.	.	.
8c#X\	.	4ee\ 4g\	.	.
8A\	.	.	.	.
8e\	.	[4bb-X\ [4cc#X\ [4b-X\	.	.
8A\J	.	.	.	.
=149	=149	=149	=149	=149
8e\L	.	4bb-\] 4cc#\] 4b-\]	.	.
8A\	.	.	.	.
8e\	.	4aa\ 4cc#X\ 4a\	.	.
8A\	.	.	.	.
8e\	.	4gg\ 4cc#\ 4g\	.	.
8A\J	.	.	.	.
=150	=150	=150	=150	=150
8D\L	.	4ff\ 4dd\ 4f\	.	.
8A\	.	.	.	.
8d\	.	4ee\ 4cc#X\ 4g\	.	.
8A\	.	.	.	.
8d\	.	4dd\ 4f\	.	.
8A\J	.	.	.	.
=151	=151	=151	=151	=151
!LO:TX:t=P:problem=mixed beam	!	!	!	!
8EE/L	.	2cc\ 2a\ 2e\	.	.
8A\	.	.	.	.
8c\	.	.	.	.
8A\	.	.	.	.
8c\	.	8dd\L	.	.
8A\J	.	8dd#X\J	.	.
=152	=152	=152	=152	=152
8c\L	.	2ee\ 2a\ 2e\	.	.
8A\	.	.	.	.
8c\	.	.	.	.
8A\	.	.	.	.
8c\	.	[4cc\ [4a\ [4e\	.	.
8A\J	.	.	.	.
=153	=153	=153	=153	=153
8E\L	.	4cc\] 4a\] 4e\]	.	.
8A\	.	.	.	.
8d\	.	4b\ 4a\ 4f\	.	.
8A\	.	.	.	.
8c\	.	4cc\ 4a\ 4f\	.	.
8A\J	.	.	.	.
=154	=154	=154	=154	=154
*	*	*^	*	*
!LO:TX:t=P:problem=mixed beam	!	!	!	!	!
8EE/L	.	4dd/	2.g#X\ 2.e\	.	.
8E\	.	.	.	.	.
8d\	.	4cc/	.	.	.
8E\	.	.	.	.	.
8d\	.	4b/	.	.	.
8E\J	.	.	.	.	.
*	*	*v	*v	*	*
!!LO:LB:g=original
=155	=155	=155	=155	=155
4FF\	.	8r	.	.
.	.	8a/L	.	.
4c\ 4A\ 4F\	.	8b/	.	.
.	.	8a/	.	.
4c\ 4A\ 4F\	.	8cc/	.	.
.	.	8a/J	.	.
=156	=156	=156	=156	=156
4c\ 4A\ 4F\	.	8dd/L	.	.
.	.	8a/	.	.
4c\ 4A\ 4E\	.	8ee/	.	.
.	.	8a/	.	.
4c\ 4A\ 4D\	.	8ff/	.	.
.	.	8a/J	.	.
=157	=157	=157	=157	=157
4EE/	.	8r	.	.
.	.	8ee\L	.	.
4c\ 4A\ 4E\	.	8ff\	.	.
.	.	8ee\	.	.
4B\ 4A\ 4F\	.	8dd#X\	.	.
.	.	8bb\J	.	.
=158	=158	=158	=158	=158
*^	*	*	*	*
4E\	4G#X/	.	8ccc\L 8ee\	.	.
.	.	.	8bb\	.	.
*clefG2	*	*	*	*	*
4g#X/ 4e/ 4d/	2ryy	.	8eee\	.	.
.	.	.	8bb\	.	.
4g#/ 4e/ 4d/	.	.	8gg#X\	.	.
.	.	.	8ee\J	.	.
*clefF4	*	*	*	*	*
*v	*v	*	*	*	*
=159	=159	=159	=159	=159
4C\	.	8r	.	.
.	.	8aa\L	.	.
*clefG2	*	*	*	*
4a/ 4e/ 4c/	.	8bb\	.	.
.	.	8aa\	.	.
4a/ 4e/ 4c/	.	8gg#X\	.	.
.	.	8aa\J	.	.
*clefF4	*	*	*	*
=160	=160	=160	=160	=160
4C#X\	.	8r	.	.
.	.	8ggn\L	.	.
*clefG2	*	*	*	*
4b-X/ 4e/ 4c#X/	.	8aa\	.	.
.	.	8gg\	.	.
4b-/ 4e/ 4c#/	.	8ff#X\	.	.
.	.	8gg\J	.	.
*clefF4	*	*	*	*
!!LO:LB:g=original
=161	=161	=161	=161	=161
4D\	.	8r	.	.
.	.	8ff\L	.	.
*clefG2	*	*	*	*
4a/ 4f/ 4d/	.	8ddd\	.	.
.	.	8ff\	.	.
4cc#X/ 4g/ 4d/	.	8ee\	.	.
.	.	8bb-X\J	.	.
=162	=162	=162	=162	=162
4dd/ 4a/ 4f/ 4d/	.	8aa\L	.	.
.	.	8a\	.	.
*clefF4	*	*	*	*
4A\ 4F\ 4D\	.	8g#X\	.	.
.	.	8a\	.	.
4A\ 4F#X\ 4D#X\	.	8a#X\	.	.
.	.	8b\J	.	.
=163	=163	=163	=163	=163
4E\ 4EE\	.	8cc\L	.	.
.	.	8ee\	.	.
4c\ 4A\ 4E\	.	8aa\	.	.
.	.	8ccc\	.	.
4e\ 4c\ 4A\	.	8bb\	.	.
.	.	8aa\J	.	.
=164	=164	=164	=164	=164
2.a\ 2.e\ 2.c\	.	8gg#X\L	.	.
.	.	8aa\	.	.
.	.	8eee\	.	.
.	.	8ccc\	.	.
.	.	8aa\	.	.
.	.	8ff\J	1	.
=165	=165	=165	=165	=165
4EE\ 4EEE\	.	8ee\L	5	.
.	.	8e\	.	.
4d\ 4G#X\ 4E\	.	8d#X\	.	.
.	.	8e\	.	.
4d\ 4G#\ 4E\	.	8f\	.	.
.	.	8f#X\J	.	.
=166	=166	=166	=166	=166
2.d\ 2.B\ 2.E\	.	8g\L	.	.
.	.	8g#X\	.	.
.	.	8ff\	.	.
.	.	8g#\	.	.
.	.	8ee\	.	.
.	.	8g#\J	.	.
!!LO:LB:g=original
=167	=167	=167	=167	=167
8AA\L	.	[2.cc\ 2.a\ 2.e\ 2.c\	.	.
8E\	.	.	.	.
8F\	.	.	.	.
8F#X\	.	.	.	.
8G\	.	.	.	.
8G#X\J	.	.	.	.
=168	=168	=168	=168	=168
8A\L	.	4cc\]	.	.
8f\	.	.	.	.
8e\	.	4g#X\	.	.
8d#X\	.	.	.	.
8dn\	.	4a\	.	.
8c\J	.	.	.	.
=169	=169	=169	=169	=169
8B\L 8E\	.	2.ee\ 2.g#X\ 2.d\	.	.
8A#X\	.	.	.	.
8B\	.	.	.	.
8E\	.	.	.	.
8e\	.	.	.	.
8B\J	.	.	.	.
=170	=170	=170	=170	=170
8c\L 8B\	.	4ff\ 4a\	.	.
8A\	.	.	.	.
8G#X\	.	4ee\ 4cc\	.	.
8A\	.	.	.	.
8e\	.	4cc\ 4a\	.	.
8A\J	.	.	.	.
=171	=171	=171	=171	=171
[2.A\ 2.C\ 2.FF\	.	8r	.	f
.	.	8c/L	.	.
.	.	8c#X/	.	.
.	.	8d/	.	.
.	.	8d#X/	.	.
.	.	8e/J	.	.
=172	=172	=172	=172	=172
4A\]	.	8f/L	.	.
.	.	8dd/	.	.
4E\	.	8cc/	.	.
.	.	8b/	.	.
4F\	.	8b-X/	.	.
.	.	8a/J	.	.
=173	=173	=173	=173	=173
2.c\ 2.B-X\ 2.E\ 2.C\	.	8g/L	.	.
.	.	8f#X/	.	.
.	.	8g/	.	.
.	.	8c/	.	.
.	.	8cc/	.	.
.	.	8g/J	.	.
!!LO:LB:g=original
=174	=174	=174	=174	=174
4d\ 4A\ 4F\	.	8g/L	.	.
.	.	8f/	.	.
4c\	.	8e/	.	.
.	.	8f/	.	.
4A\	.	8cc/	.	.
.	.	8f/J	.	.
=175	=175	=175	=175	=175
8D\L	.	[2.ff\ 2.a\ 2.f\	.	p
8A\	.	.	.	.
8B-X\	.	.	.	.
8Bn\	.	.	.	.
8c\	.	.	.	.
8c#X\J	.	.	.	.
*clefG2	*	*	*	*
=176	=176	=176	=176	=176
8d/L	.	4ff\]	.	.
8b-X/	.	.	.	.
8a/	.	4cc#X\	.	.
8g#X/	.	.	.	.
8gn/	.	4dd\	.	.
8f/J	.	.	.	.
=177	=177	=177	=177	=177
8e/L 8A/	.	2.aa\ 2.cc#X\ 2.g\	.	.
8d#X/	.	.	.	.
8e/	.	.	.	.
8A/	.	.	.	.
8a/	.	.	.	.
8e/J	.	.	.	.
=178	=178	=178	=178	=178
8f/L 8e/	.	4bb-X\ 4dd\	.	.
8d/	.	.	.	.
8c#X/	.	4aa\ 4ff\	.	.
8d/	.	.	.	.
8a/	.	4ff\ 4dd\	.	.
8d/J	.	.	.	.
*clefF4	*	*	*	*
=179	=179	=179	=179	=179
[2.F\ [2.GG\	.	8B/L	.	.
.	.	8d/	.	<
.	.	8d#X/	.	.
.	.	8e/	.	.
.	.	8f/	.	.
.	.	8f#X/J	.	.
=180	=180	=180	=180	=180
4.F\] 4.GG\]	.	8g/L	.	.
.	.	8ee/	.	.
.	.	8ee-X/	.	.
8f\ 8G\	.	8ddn/	.	.
4f\ 4A-X\	.	8dd-X/	.	.
.	.	8ccn/J	.	.
!!LO:LB:g=original
=181	=181	=181	=181	=181
[2.fn\ [2.G\	.	8b\L	.	.
.	.	8dd\	.	.
.	.	8dd#X\	.	.
.	.	8ee\	.	.
.	.	8ff\	.	.
.	.	8ff#X\J	.	.
=182	=182	=182	=182	=182
4.f\] 4.G\]	.	8gg\L	.	.
.	.	8eee\	.	.
.	.	8eee-X\	.	.
*clefG2	*	*	*	*
8ff\ 8g\	.	8dddn\	.	.
!	!	!LO:TX:t=P:problem=zapis poprawiany	!	!
!	!	!LO:TX:a:i:t=des	!	!
4ff\ 4a-X\	.	8ddd-X\	.	.
.	.	8cccn\J	.	.
=183	=183	=183	=183	=183
*	*	*8va	*	*
[2.ffn\ [2.g\	.	8bb\L	.	.
.	.	8ddd\	.	.
.	.	8ddd#X\	.	f
.	.	8eee\	.	.
.	.	8fff\	.	.
.	.	8fff#X\J	.	.
=184	=184	=184	=184	=184
8ff\]L 8g\]	.	8ggg\L	.	.
8ggg\	.	8eeee\	.	.
!	!	!LO:TX:t=P:problem=zapis poprawiany	!	!
!	!	!LO:TX:b:i:t=es	!	!
8fff#X\	.	8eeee-X\	.	.
8fffn\	.	8ddddn\	.	.
8eee\	.	8cccc#X\	.	.
8eee-X\J	.	8ccccn\J	.	.
=185	=185	=185	=185	=185
8ddd\L	.	8bbb\L	.	.
8eee\	.	8ggg\	.	.
8ddd#X\	.	8fff#X\	.	.
8dddn\	.	8fffn\	.	.
8ccc#X\	.	8eee\	.	.
8cccn\J	.	8eee-X\J	.	.
*	*	*X8va	*	*
=186	=186	=186	=186	=186
8bb\L	.	8ddd\L	.	.
!LO:TX:t=P:problem=zapis poprawiany (nuta skreslona)	!	!LO:TX:t=P:problem=zapis poprawiany (nuta skreslona)	!	!
!LO:TX:a:t=♭	!	!LO:TX:a:i:t=des	!	!
8aa#X\	.	8ccc#X\	.	.
8aa\	.	8ccc\	.	.
8gg#X\	.	8bb\	.	.
8ggn\	.	8bb-X\	.	>
8ff#X\J	.	8aa\J	.	.
!!LO:PB:g=original
=187	=187	=187	=187	=187
!	!	!LO:TX:b:i:t=e poco ritenuto.	!	!
8ffn\L	.	8aa-X\L	.	.
8ee\	.	8gg\	.	.
8dd#X\	.	8ff#X\	.	.
8ddn\	.	8ffn\	.	.
8cc#X\	.	8ee\	.	.
8ccn\J	.	8ee-X\J	.	.
=188	=188	=188	=188	=188
8b\L	.	8dd\L	.	.
!LO:TX:t=P:problem=zapis poprawiany (nuta skreslona)	!	!LO:TX:t=P:problem=zapis poprawiany (nuta skreslona)	!	!
!LO:TX:a:t=♭	!	!LO:TX:a:i:t=des	!	!
8a#X\	.	8cc#X\	.	.
8an\	.	8ccn\	.	.
8g#X\	.	8b\	.	.
8gn\	.	8b-X\	.	.
!	!	!LO:TX:t=P:problem=skan urwany, ciągu dalszego brak	!	!
8f-X\J	.	8a\J	.	.
==	==	==	==	==
*-	*-	*-	*-	*-
!!!system-decoration: {(s1,s2)}
!!!RDF**kern: > = above
!!!RDF**kern: < = below
!!!RDF**dynam: p = p.
!!!RDF**dynam: f = f.
!!!RDF**dynam: < = cresc
!!!RDF**dynam: > = dim
!!!EED: Andrzej Borzym
!!!EEV: 2021-05-28
!!!ENC: Andrzej Gręziak
!!!END: 2021-05-06
!!!YEC: Copyright 2022 Narodowy Instytut Fryderyka Chopina (https://polishscores.org)
!!!YEM: Licence CC BY 4.0 (https://creativecommons.org/licenses/by/4.0)
